X:1
T:Title
%%score { ( 1 3 ) | ( 2 4 ) }
L:1/8
M:9/8
K:C
V:1 treble nm="Grand Piano"
V:3 treble 
V:2 bass 
V:4 bass 
V:1
 z3 z3[Q:1/4=100] G^FG | [Ec]6 z3 | [EG]3 z3 z3 | .[DB]6[K:bass][K:treble] z3 |[M:3/4] [CE]6 | %5
[M:3/8] G^FG |[M:9/8] [Ge]6 z3 | [Fd]3 z3 z3 | [EG]6 z3 |[M:3/4] [Ec]6 |[M:3/8] G2 G | %11
[M:9/8] d6 z3 | E3- [Ec]3 E2 E | [CA]2 ^G [CA]2 G [CA]2 [Dc] |[M:3/4] [DB]6 |[M:3/8] A2 G | %16
[M:9/8] [Ge]6 z3 | d3 A3 B2 A | C2 C C2 c BAB |[M:3/4] [Ec]6 |] %20
V:2
 z3 z3 E_E=E | z3 z3 .G,3 | G,,F,F, .[F,G,B,]3 z ^CD | G,,[F,G,][F,G,] z B,C G,,2 D | %4
[M:3/4] C,E, G, .C,3 |[M:3/8] E_E=E |[M:9/8] [C,,C,][E,G,][E,G,] [E,G,]2 F z DE | %7
 [F,,F,][F,A,][F,A,][K:treble] .[F,A,DF]3 G2 F | G,,E,E, E,2 E z[K:treble] ^F=F | %9
[M:3/4][K:bass] [C,G,]6 |[M:3/8] z3 | %11
[M:9/8][K:treble] [G,B,F]2 [G,B,] [G,B,]2 [G,DF] [G,CF]2 [G,B,F] | z3 G,3 E,2 E, | %13
 [A,,E,]2 [E,B,] [A,,E,]2 [E,B,] [A,,E,]2 [D,^F,] |[M:3/4] [G,,G,]6 |[M:3/8][K:treble] F2 E | %16
[M:9/8][K:bass] [C,C]2 C, C,2 [C,G,] G,-[D,G,]E, | [F,A,F]3 [F,CF]3 G2 F | %18
 G,2 G, G,2 [G,EG] [DG][C^F][G,=F] |[M:3/4][K:bass] [C,G,]6 |] %20
V:3
 x9 | z CC C2 E E_E[C=E] | z [G,B,][G,B,] [DF]3 [DF]EF | z[K:bass] B,B, B,DE[K:treble] [G,EG]2 F | %4
[M:3/4] x6 |[M:3/8] x3 |[M:9/8] z CC C2 d [Ec]Bc | z DD A3 B2 A | z [G,C][G,C] [G,C]2 c [GB]AB | %9
[M:3/4] x6 |[M:3/8] x3 |[M:9/8] z2 F F2 B A2 G | [CG]3 z3 z3 | x9 |[M:3/4] x6 |[M:3/8] x3 | %16
[M:9/8] z2 C C2 [Fd] [Ec][FB][CGc] | x9 | [EG]6 z3 |[M:3/4] x6 |] %20
V:4
 x9 | [C,,C,][E,G,][E,G,] [E,G,]2 C [C,C]-[C,^F,C]G, | z3 z3 .[G,,G,]3 | z3 .[F,G,]3 z3 | %4
[M:3/4] x6 |[M:3/8] x3 |[M:9/8] z3 z3 .[C,G,]3 | x3[K:treble] x6 | z3 z3 .[G,,G,]3[K:treble] | %9
[M:3/4][K:bass] x6 |[M:3/8] x3 |[M:9/8][K:treble] x9 | C,6 z3 | x9 |[M:3/4] x6 | %15
[M:3/8][K:treble] x3 |[M:9/8][K:bass] z3 z3 .C,3 | x9 | z3 z3 .G,3 |[M:3/4][K:bass] x6 |] %20

